X:1
T:Title
%%score { 1 | 2 }
L:1/8
M:3/4
K:G
V:1 treble nm="Grand Piano"
V:2 bass 
V:1
 z2 z2[Q:1/4=100] [B,D]>[B,D] | [B,G]2 [DG]2 A2 | B4 c>c | c2 A2 G2 |[M:2/4] [Fd]4 | %5
[M:1/4] [Fd]>[Fd] |[M:3/4] [Gd]2 [Dc]2 [=FB]2 | [EA]2 [CE]2 [EA]>[EA] | G2 G2 F2 |[M:2/4] [B,G]4 | %10
[M:1/4] [DB]>[DB] |[M:3/4] [DB]2 [DG]2 [=Fd]2 | [Ec]4 [Ec]>[Ec] | [DB]2 [DB]2 A2 |[M:2/4] d4 | %15
[M:1/4] d>c |[M:3/4] [DB]2 [B,DG]2 [=Fd]>[Fd] | [Ec]2 [CE]2 [EA]>[EA] | [B,DG]2 [B,DG]2 [A,DF]2 | %19
[M:2/4] [B,DG]4 |] %20
V:2
 z2 z2 [G,,G,]>[G,,G,] | [G,,G,]2 [B,,G,]2 [D,F,D]2 | [G,E]4 [A,D]>[A,D] | [G,D]2 [F,D]2 [E,^C]2 | %4
[M:2/4] [D,D]4 |[M:1/4] [C,A,]>[C,A,] |[M:3/4] [B,,G,]2 [A,,F,]2 [G,,G,]2 | %7
 [C,G,]2 [C,G,]2 [C,C]>[C,C] | [D,B,D]2 [D,B,D]2 [D,A,C]2 |[M:2/4] [G,,G,]4 | %10
[M:1/4] [G,,G,]>[G,,G,] |[M:3/4] [G,,G,]2 [G,,G,]2 [B,,G,]2 | [C,G,]4 [C,G,]>[C,G,] | %13
 [G,,G,]2 [G,,G,]2 [E,G,^C]2 |[M:2/4] [D,F,D]4 |[M:1/4] [D,F,D]>[D,F,D] | %16
[M:3/4] [G,,G,]2 G,,2 [B,,G,]>[B,,G,] | [C,G,]2 [C,G,]2 [C,C]>[C,C] | D,2 D,2 D,2 |[M:2/4] G,,4 |] %20

